assets/1. P-Z/Poultry leg/Color/Poultry.Leg-color.svg

<svg width="100%" height="100%" viewBox="0 0 32 32" fill="none" xmlns="http://www.w3.org/2000/svg">
<path d="M4.50004 7.2812C4.84379 7.64058 5.19155 7.8417 5.4844 7.94529C6.69091 8.3721 7.32252 7.53439 7.75001 8.06247L11.7544 13.4788L14.4288 11.5405L10.3906 6.12497C9.88637 5.42172 11.8497 4.61265 10.625 2.93746C9.94534 2.00777 8.92187 1.80464 8.00002 2.1953C7.38799 2.45467 7.21879 2.93746 6.94862 3.49823C6.83067 3.74306 6.68388 3.89367 6.45071 3.85524C5.88984 3.7708 5.31041 3.90857 4.81251 4.2656C3.93496 4.89487 3.76266 6.51031 4.50004 7.2812Z" fill="url(#paint0_linear_18_29066)"/>
<path d="M4.50006 7.28121C4.84381 7.64058 5.19157 7.8417 5.48442 7.9453C6.45073 8.28714 9.07813 7.9453 7.29687 4.53125C9.40625 7.42187 12.0625 4.625 10.625 2.93747C9.7689 1.9324 8.92189 1.80465 8.00004 2.1953C7.38801 2.45467 7.21881 2.93747 6.94864 3.49823C6.83068 3.74307 6.6839 3.89367 6.45073 3.85525C5.88986 3.77081 5.31043 3.90857 4.81252 4.2656C3.93498 4.89488 3.76268 6.51031 4.50006 7.28121Z" fill="url(#paint1_radial_18_29066)"/>
<path d="M4.50006 7.28121C4.84381 7.64058 5.19157 7.8417 5.48442 7.9453C6.45073 8.28714 9.07813 7.9453 7.29687 4.53125C9.40625 7.42187 12.0625 4.625 10.625 2.93747C9.7689 1.9324 8.92189 1.80465 8.00004 2.1953C7.38801 2.45467 7.21881 2.93747 6.94864 3.49823C6.83068 3.74307 6.6839 3.89367 6.45073 3.85525C5.88986 3.77081 5.31043 3.90857 4.81252 4.2656C3.93498 4.89488 3.76268 6.51031 4.50006 7.28121Z" fill="url(#paint2_radial_18_29066)"/>
<path d="M4.50006 7.28121C4.84381 7.64058 5.19157 7.8417 5.48442 7.9453C6.45073 8.28714 9.07813 7.9453 7.29687 4.53125C9.40625 7.42187 12.0625 4.625 10.625 2.93747C9.7689 1.9324 8.92189 1.80465 8.00004 2.1953C7.38801 2.45467 7.21881 2.93747 6.94864 3.49823C6.83068 3.74307 6.6839 3.89367 6.45073 3.85525C5.88986 3.77081 5.31043 3.90857 4.81252 4.2656C3.93498 4.89488 3.76268 6.51031 4.50006 7.28121Z" fill="url(#paint3_radial_18_29066)"/>
<path d="M11.4063 26.0312C14.2595 30.1773 20.1545 31.3752 24.2594 28.4106C28.1739 25.5757 29.214 19.9119 26.5 15.9063C24.7558 13.3483 21.9687 12.0313 19.25 11.7813C17.0299 11.5771 16.0496 9.84624 14.625 8.43755C13.6147 7.43852 12.2527 7.11863 11.1562 7.875L9.33403 9.12627C8.22756 9.88076 8.02487 11.5286 8.78125 12.6251C9.71875 14.4063 10.5313 15.5626 10.3438 17.5938C10.088 20.3648 9.66633 23.5052 11.4063 26.0312Z" fill="#D1815D"/>
<path d="M11.4063 26.0312C14.2595 30.1773 20.1545 31.3752 24.2594 28.4106C28.1739 25.5757 29.214 19.9119 26.5 15.9063C24.7558 13.3483 21.9687 12.0313 19.25 11.7813C17.0299 11.5771 16.0496 9.84624 14.625 8.43755C13.6147 7.43852 12.2527 7.11863 11.1562 7.875L9.33403 9.12627C8.22756 9.88076 8.02487 11.5286 8.78125 12.6251C9.71875 14.4063 10.5313 15.5626 10.3438 17.5938C10.088 20.3648 9.66633 23.5052 11.4063 26.0312Z" fill="url(#paint4_radial_18_29066)"/>
<path d="M11.4063 26.0312C14.2595 30.1773 20.1545 31.3752 24.2594 28.4106C28.1739 25.5757 29.214 19.9119 26.5 15.9063C24.7558 13.3483 21.9687 12.0313 19.25 11.7813C17.0299 11.5771 16.0496 9.84624 14.625 8.43755C13.6147 7.43852 12.2527 7.11863 11.1562 7.875L9.33403 9.12627C8.22756 9.88076 8.02487 11.5286 8.78125 12.6251C9.71875 14.4063 10.5313 15.5626 10.3438 17.5938C10.088 20.3648 9.66633 23.5052 11.4063 26.0312Z" fill="url(#paint5_radial_18_29066)"/>
<path d="M11.4063 26.0312C14.2595 30.1773 20.1545 31.3752 24.2594 28.4106C28.1739 25.5757 29.214 19.9119 26.5 15.9063C24.7558 13.3483 21.9687 12.0313 19.25 11.7813C17.0299 11.5771 16.0496 9.84624 14.625 8.43755C13.6147 7.43852 12.2527 7.11863 11.1562 7.875L9.33403 9.12627C8.22756 9.88076 8.02487 11.5286 8.78125 12.6251C9.71875 14.4063 10.5313 15.5626 10.3438 17.5938C10.088 20.3648 9.66633 23.5052 11.4063 26.0312Z" fill="url(#paint6_radial_18_29066)"/>
<path d="M11.4063 26.0312C14.2595 30.1773 20.1545 31.3752 24.2594 28.4106C28.1739 25.5757 29.214 19.9119 26.5 15.9063C24.7558 13.3483 21.9687 12.0313 19.25 11.7813C17.0299 11.5771 16.0496 9.84624 14.625 8.43755C13.6147 7.43852 12.2527 7.11863 11.1562 7.875L9.33403 9.12627C8.22756 9.88076 8.02487 11.5286 8.78125 12.6251C9.71875 14.4063 10.5313 15.5626 10.3438 17.5938C10.088 20.3648 9.66633 23.5052 11.4063 26.0312Z" fill="url(#paint7_radial_18_29066)"/>
<path d="M11.4063 26.0312C14.2595 30.1773 20.1545 31.3752 24.2594 28.4106C28.1739 25.5757 29.214 19.9119 26.5 15.9063C24.7558 13.3483 21.9687 12.0313 19.25 11.7813C17.0299 11.5771 16.0496 9.84624 14.625 8.43755C13.6147 7.43852 12.2527 7.11863 11.1562 7.875L9.33403 9.12627C8.22756 9.88076 8.02487 11.5286 8.78125 12.6251C9.71875 14.4063 10.5313 15.5626 10.3438 17.5938C10.088 20.3648 9.66633 23.5052 11.4063 26.0312Z" fill="url(#paint8_radial_18_29066)"/>
<path d="M11.4063 26.0312C14.2595 30.1773 20.1545 31.3752 24.2594 28.4106C28.1739 25.5757 29.214 19.9119 26.5 15.9063C24.7558 13.3483 21.9687 12.0313 19.25 11.7813C17.0299 11.5771 16.0496 9.84624 14.625 8.43755C13.6147 7.43852 12.2527 7.11863 11.1562 7.875L9.33403 9.12627C8.22756 9.88076 8.02487 11.5286 8.78125 12.6251C9.71875 14.4063 10.5313 15.5626 10.3438 17.5938C10.088 20.3648 9.66633 23.5052 11.4063 26.0312Z" fill="url(#paint9_radial_18_29066)"/>
<circle cx="22" cy="16" r="1" fill="#E78A61"/>
<circle cx="24.0781" cy="18.3906" r="1" fill="#E78A61"/>
<circle cx="21" cy="19" r="1" fill="#E78A61"/>
<g filter="url(#filter0_f_18_29066)">
<path d="M9.76312 9.75C9.36729 10.1042 8.6756 10.975 9.3256 12.375" stroke="url(#paint10_linear_18_29066)" stroke-width="0.5" stroke-linecap="round"/>
</g>
<g filter="url(#filter1_f_18_29066)">
<path d="M10.0725 5.55776C9.92949 6.04781 9.1944 6.26441 8.43061 6.04156C7.66682 5.81871 7.16355 5.2408 7.30653 4.75075C7.44951 4.2607 8.14475 4.18066 8.90854 4.40351C9.67234 4.62636 10.2154 5.06771 10.0725 5.55776Z" fill="#D3B2EE"/>
</g>
<g filter="url(#filter2_f_18_29066)">
<path d="M7.48438 7.5625C7.89062 7.25 8.0875 6.475 7.8125 5.5" stroke="url(#paint11_linear_18_29066)" stroke-width="0.5"/>
</g>
<defs>
<filter id="filter0_f_18_29066" x="7.30859" y="8" width="4.20453" height="6.12506" filterUnits="userSpaceOnUse" color-interpolation-filters="sRGB">
<feFlood flood-opacity="0" result="BackgroundImageFix"/>
<feBlend mode="normal" in="SourceGraphic" in2="BackgroundImageFix" result="shape"/>
<feGaussianBlur stdDeviation="0.75" result="effect1_foregroundBlur_18_29066"/>
</filter>
<filter id="filter1_f_18_29066" x="6.28223" y="3.2854" width="4.81317" height="3.84381" filterUnits="userSpaceOnUse" color-interpolation-filters="sRGB">
<feFlood flood-opacity="0" result="BackgroundImageFix"/>
<feBlend mode="normal" in="SourceGraphic" in2="BackgroundImageFix" result="shape"/>
<feGaussianBlur stdDeviation="0.5" result="effect1_foregroundBlur_18_29066"/>
</filter>
<filter id="filter2_f_18_29066" x="6.83197" y="4.93213" width="1.85815" height="3.32855" filterUnits="userSpaceOnUse" color-interpolation-filters="sRGB">
<feFlood flood-opacity="0" result="BackgroundImageFix"/>
<feBlend mode="normal" in="SourceGraphic" in2="BackgroundImageFix" result="shape"/>
<feGaussianBlur stdDeviation="0.25" result="effect1_foregroundBlur_18_29066"/>
</filter>
<linearGradient id="paint0_linear_18_29066" x1="8.3125" y1="8.5" x2="11.1875" y2="6.4375" gradientUnits="userSpaceOnUse">
<stop stop-color="#B394CB"/>
<stop offset="0.471607" stop-color="#E3D6E9"/>
<stop offset="0.699376" stop-color="#FAF2F9"/>
</linearGradient>
<radialGradient id="paint1_radial_18_29066" cx="0" cy="0" r="1" gradientUnits="userSpaceOnUse" gradientTransform="translate(6.625 5.4375) rotate(125.362) scale(2.37582 2.44333)">
<stop stop-color="#F4E8FF"/>
<stop offset="1" stop-color="#CAC7CF"/>
</radialGradient>
<radialGradient id="paint2_radial_18_29066" cx="0" cy="0" r="1" gradientUnits="userSpaceOnUse" gradientTransform="translate(5.5 9.875) rotate(-56.9761) scale(4.47257 4.58191)">
<stop offset="0.420945" stop-color="#C489EE"/>
<stop offset="1" stop-color="#C68FEE" stop-opacity="0"/>
</radialGradient>
<radialGradient id="paint3_radial_18_29066" cx="0" cy="0" r="1" gradientUnits="userSpaceOnUse" gradientTransform="translate(9.75 3.5) rotate(120.261) scale(4.41397 4.52188)">
<stop offset="0.0741848" stop-color="#FAF4FF"/>
<stop offset="0.845847" stop-color="#C5C2C7" stop-opacity="0"/>
</radialGradient>
<radialGradient id="paint4_radial_18_29066" cx="0" cy="0" r="1" gradientUnits="userSpaceOnUse" gradientTransform="translate(23.8088 17.0803) rotate(123.104) scale(16.8519 17.0088)">
<stop offset="0.0569907" stop-color="#FFC995"/>
<stop offset="0.593566" stop-color="#C07554"/>
<stop offset="0.791853" stop-color="#B26B50"/>
<stop offset="1" stop-color="#80584B"/>
</radialGradient>
<radialGradient id="paint5_radial_18_29066" cx="0" cy="0" r="1" gradientUnits="userSpaceOnUse" gradientTransform="translate(15.625 8.625) rotate(43.6361) scale(7.42673 5.33268)">
<stop stop-color="#FFD2B0"/>
<stop offset="1" stop-color="#FCB682" stop-opacity="0"/>
</radialGradient>
<radialGradient id="paint6_radial_18_29066" cx="0" cy="0" r="1" gradientUnits="userSpaceOnUse" gradientTransform="translate(20.8125 13.4375) rotate(118.025) scale(26.3382 26.5835)">
<stop offset="0.38531" stop-color="#C66576" stop-opacity="0"/>
<stop offset="0.614501" stop-color="#AE4B94"/>
<stop offset="0.694558" stop-color="#BD68C6"/>
</radialGradient>
<radialGradient id="paint7_radial_18_29066" cx="0" cy="0" r="1" gradientUnits="userSpaceOnUse" gradientTransform="translate(30.1069 22) rotate(95.8681) scale(9.60375 9.69318)">
<stop stop-color="#FFAF79"/>
<stop offset="1" stop-color="#FFAD78" stop-opacity="0"/>
</radialGradient>
<radialGradient id="paint8_radial_18_29066" cx="0" cy="0" r="1" gradientUnits="userSpaceOnUse" gradientTransform="translate(10.4375 19.625) rotate(74.5923) scale(8.23341 6.83932)">
<stop stop-color="#956A56"/>
<stop offset="1" stop-color="#B27759" stop-opacity="0"/>
</radialGradient>
<radialGradient id="paint9_radial_18_29066" cx="0" cy="0" r="1" gradientUnits="userSpaceOnUse" gradientTransform="translate(8.5625 13.875) rotate(75.1243) scale(4.13871 4.17725)">
<stop stop-color="#874E46"/>
<stop offset="1" stop-color="#874E45" stop-opacity="0"/>
</radialGradient>
<linearGradient id="paint10_linear_18_29066" x1="9.02831" y1="11.5448" x2="9.55069" y2="11.5031" gradientUnits="userSpaceOnUse">
<stop stop-color="#A57359"/>
<stop offset="0.8899" stop-color="#DEDCD9"/>
</linearGradient>
<linearGradient id="paint11_linear_18_29066" x1="7.32813" y1="7.42187" x2="7.71226" y2="5.17187" gradientUnits="userSpaceOnUse">
<stop stop-color="#C390E6"/>
<stop offset="1" stop-color="#DCC2F2"/>
</linearGradient>
</defs>
</svg>

<svg width="100%" height="100%" viewBox="0 0 32 32" xmlns="http://www.w3.org/2000/svg"><path fill="url(#a)" d="M4.5 7.281c.344.36.692.56.984.664 1.207.427 1.839-.41 2.266.117l4.004 5.417 2.675-1.938-4.038-5.416c-.505-.703 1.459-1.512.234-3.188-.68-.93-1.703-1.132-2.625-.742-.612.26-.781.742-1.051 1.303-.118.245-.265.396-.498.357a2.23 2.23 0 0 0-1.638.41c-.878.63-1.05 2.245-.313 3.016"/><path fill="url(#b)" d="M4.5 7.281c.344.36.692.56.984.664.967.342 3.594 0 1.813-3.414 2.11 2.89 4.766.094 3.328-1.594C9.769 1.932 8.922 1.805 8 2.195c-.612.26-.781.742-1.051 1.303-.118.245-.265.396-.498.357a2.23 2.23 0 0 0-1.638.41c-.878.63-1.05 2.245-.313 3.016"/><path fill="url(#c)" d="M4.5 7.281c.344.36.692.56.984.664.967.342 3.594 0 1.813-3.414 2.11 2.89 4.766.094 3.328-1.594C9.769 1.932 8.922 1.805 8 2.195c-.612.26-.781.742-1.051 1.303-.118.245-.265.396-.498.357a2.23 2.23 0 0 0-1.638.41c-.878.63-1.05 2.245-.313 3.016"/><path fill="url(#d)" d="M4.5 7.281c.344.36.692.56.984.664.967.342 3.594 0 1.813-3.414 2.11 2.89 4.766.094 3.328-1.594C9.769 1.932 8.922 1.805 8 2.195c-.612.26-.781.742-1.051 1.303-.118.245-.265.396-.498.357a2.23 2.23 0 0 0-1.638.41c-.878.63-1.05 2.245-.313 3.016"/><path fill="#D1815D" d="M11.406 26.031c2.853 4.146 8.748 5.344 12.853 2.38 3.915-2.835 4.955-8.5 2.241-12.505-1.744-2.558-4.531-3.875-7.25-4.125-2.22-.204-3.2-1.935-4.625-3.343-1.01-1-2.372-1.32-3.469-.563L9.334 9.126c-1.106.755-1.31 2.403-.553 3.5.938 1.78 1.75 2.937 1.563 4.968-.256 2.77-.678 5.911 1.062 8.437"/><path fill="url(#e)" d="M11.406 26.031c2.853 4.146 8.748 5.344 12.853 2.38 3.915-2.835 4.955-8.5 2.241-12.505-1.744-2.558-4.531-3.875-7.25-4.125-2.22-.204-3.2-1.935-4.625-3.343-1.01-1-2.372-1.32-3.469-.563L9.334 9.126c-1.106.755-1.31 2.403-.553 3.5.938 1.78 1.75 2.937 1.563 4.968-.256 2.77-.678 5.911 1.062 8.437"/><path fill="url(#f)" d="M11.406 26.031c2.853 4.146 8.748 5.344 12.853 2.38 3.915-2.835 4.955-8.5 2.241-12.505-1.744-2.558-4.531-3.875-7.25-4.125-2.22-.204-3.2-1.935-4.625-3.343-1.01-1-2.372-1.32-3.469-.563L9.334 9.126c-1.106.755-1.31 2.403-.553 3.5.938 1.78 1.75 2.937 1.563 4.968-.256 2.77-.678 5.911 1.062 8.437"/><path fill="url(#g)" d="M11.406 26.031c2.853 4.146 8.748 5.344 12.853 2.38 3.915-2.835 4.955-8.5 2.241-12.505-1.744-2.558-4.531-3.875-7.25-4.125-2.22-.204-3.2-1.935-4.625-3.343-1.01-1-2.372-1.32-3.469-.563L9.334 9.126c-1.106.755-1.31 2.403-.553 3.5.938 1.78 1.75 2.937 1.563 4.968-.256 2.77-.678 5.911 1.062 8.437"/><path fill="url(#h)" d="M11.406 26.031c2.853 4.146 8.748 5.344 12.853 2.38 3.915-2.835 4.955-8.5 2.241-12.505-1.744-2.558-4.531-3.875-7.25-4.125-2.22-.204-3.2-1.935-4.625-3.343-1.01-1-2.372-1.32-3.469-.563L9.334 9.126c-1.106.755-1.31 2.403-.553 3.5.938 1.78 1.75 2.937 1.563 4.968-.256 2.77-.678 5.911 1.062 8.437"/><path fill="url(#i)" d="M11.406 26.031c2.853 4.146 8.748 5.344 12.853 2.38 3.915-2.835 4.955-8.5 2.241-12.505-1.744-2.558-4.531-3.875-7.25-4.125-2.22-.204-3.2-1.935-4.625-3.343-1.01-1-2.372-1.32-3.469-.563L9.334 9.126c-1.106.755-1.31 2.403-.553 3.5.938 1.78 1.75 2.937 1.563 4.968-.256 2.77-.678 5.911 1.062 8.437"/><path fill="url(#j)" d="M11.406 26.031c2.853 4.146 8.748 5.344 12.853 2.38 3.915-2.835 4.955-8.5 2.241-12.505-1.744-2.558-4.531-3.875-7.25-4.125-2.22-.204-3.2-1.935-4.625-3.343-1.01-1-2.372-1.32-3.469-.563L9.334 9.126c-1.106.755-1.31 2.403-.553 3.5.938 1.78 1.75 2.937 1.563 4.968-.256 2.77-.678 5.911 1.062 8.437"/><circle cx="22" cy="16" r="1" fill="#E78A61"/><circle cx="24.078" cy="18.391" r="1" fill="#E78A61"/><circle cx="21" cy="19" r="1" fill="#E78A61"/><g filter="url(#k)"><path stroke="url(#l)" stroke-linecap="round" stroke-width=".5" d="M9.763 9.75c-.396.354-1.087 1.225-.437 2.625"/></g><g filter="url(#m)"><path fill="#D3B2EE" d="M10.073 5.558c-.144.49-.879.706-1.642.484-.764-.223-1.267-.801-1.124-1.291s.838-.57 1.602-.347c.763.222 1.306.664 1.163 1.154"/></g><g filter="url(#n)"><path stroke="url(#o)" stroke-width=".5" d="M7.484 7.563c.407-.313.604-1.088.329-2.063"/></g><defs><radialGradient id="b" cx="0" cy="0" r="1" gradientTransform="matrix(-1.37498 1.9375 -1.99256 -1.41405 6.625 5.438)" gradientUnits="userSpaceOnUse"><stop stop-color="#F4E8FF"/><stop offset="1" stop-color="#CAC7CF"/></radialGradient><radialGradient id="c" cx="0" cy="0" r="1" gradientTransform="matrix(2.4375 -3.75 3.84167 2.49709 5.5 9.875)" gradientUnits="userSpaceOnUse"><stop offset=".421" stop-color="#C489EE"/><stop offset="1" stop-color="#C68FEE" stop-opacity="0"/></radialGradient><radialGradient id="d" cx="0" cy="0" r="1" gradientTransform="rotate(120.261 3.87 4.55)scale(4.41397 4.52188)" gradientUnits="userSpaceOnUse"><stop offset=".074" stop-color="#FAF4FF"/><stop offset=".846" stop-color="#C5C2C7" stop-opacity="0"/></radialGradient><radialGradient id="e" cx="0" cy="0" r="1" gradientTransform="rotate(123.104 7.278 14.99)scale(16.8519 17.0088)" gradientUnits="userSpaceOnUse"><stop offset=".057" stop-color="#FFC995"/><stop offset=".594" stop-color="#C07554"/><stop offset=".792" stop-color="#B26B50"/><stop offset="1" stop-color="#80584B"/></radialGradient><radialGradient id="f" cx="0" cy="0" r="1" gradientTransform="rotate(43.636 -2.96 23.827)scale(7.42673 5.33268)" gradientUnits="userSpaceOnUse"><stop stop-color="#FFD2B0"/><stop offset="1" stop-color="#FCB682" stop-opacity="0"/></radialGradient><radialGradient id="g" cx="0" cy="0" r="1" gradientTransform="rotate(118.025 6.371 12.968)scale(26.3382 26.5835)" gradientUnits="userSpaceOnUse"><stop offset=".385" stop-color="#C66576" stop-opacity="0"/><stop offset=".615" stop-color="#AE4B94"/><stop offset=".695" stop-color="#BD68C6"/></radialGradient><radialGradient id="h" cx="0" cy="0" r="1" gradientTransform="rotate(95.868 5.126 24.586)scale(9.60375 9.69318)" gradientUnits="userSpaceOnUse"><stop stop-color="#FFAF79"/><stop offset="1" stop-color="#FFAD78" stop-opacity="0"/></radialGradient><radialGradient id="i" cx="0" cy="0" r="1" gradientTransform="matrix(2.1875 7.9375 -6.59351 1.8171 10.438 19.625)" gradientUnits="userSpaceOnUse"><stop stop-color="#956A56"/><stop offset="1" stop-color="#B27759" stop-opacity="0"/></radialGradient><radialGradient id="j" cx="0" cy="0" r="1" gradientTransform="matrix(1.0625 4 -4.03725 1.0724 8.563 13.875)" gradientUnits="userSpaceOnUse"><stop stop-color="#874E46"/><stop offset="1" stop-color="#874E45" stop-opacity="0"/></radialGradient><linearGradient id="a" x1="8.313" x2="11.188" y1="8.5" y2="6.438" gradientUnits="userSpaceOnUse"><stop stop-color="#B394CB"/><stop offset=".472" stop-color="#E3D6E9"/><stop offset=".699" stop-color="#FAF2F9"/></linearGradient><linearGradient id="l" x1="9.028" x2="9.551" y1="11.545" y2="11.503" gradientUnits="userSpaceOnUse"><stop stop-color="#A57359"/><stop offset=".89" stop-color="#DEDCD9"/></linearGradient><linearGradient id="o" x1="7.328" x2="7.712" y1="7.422" y2="5.172" gradientUnits="userSpaceOnUse"><stop stop-color="#C390E6"/><stop offset="1" stop-color="#DCC2F2"/></linearGradient><filter id="k" width="4.205" height="6.125" x="7.309" y="8" color-interpolation-filters="sRGB" filterUnits="userSpaceOnUse"><feFlood flood-opacity="0" result="BackgroundImageFix"/><feBlend in="SourceGraphic" in2="BackgroundImageFix" result="shape"/><feGaussianBlur result="effect1_foregroundBlur_18_29066" stdDeviation=".75"/></filter><filter id="m" width="4.813" height="3.844" x="6.282" y="3.285" color-interpolation-filters="sRGB" filterUnits="userSpaceOnUse"><feFlood flood-opacity="0" result="BackgroundImageFix"/><feBlend in="SourceGraphic" in2="BackgroundImageFix" result="shape"/><feGaussianBlur result="effect1_foregroundBlur_18_29066" stdDeviation=".5"/></filter><filter id="n" width="1.858" height="3.329" x="6.832" y="4.932" color-interpolation-filters="sRGB" filterUnits="userSpaceOnUse"><feFlood flood-opacity="0" result="BackgroundImageFix"/><feBlend in="SourceGraphic" in2="BackgroundImageFix" result="shape"/><feGaussianBlur result="effect1_foregroundBlur_18_29066" stdDeviation=".25"/></filter></defs></svg>
